images/ride-mobile.svg

<svg width="56" height="56" viewBox="0 0 56 56" fill="none" xmlns="http://www.w3.org/2000/svg">
<circle cx="28" cy="28" r="28" fill="#FCB72B"/>
<path fill-rule="evenodd" clip-rule="evenodd" d="M37.4334 26.8333H38.5002C38.7149 26.8333 38.8891 26.6591 38.8891 26.4444V23.3333C38.8891 23.1185 38.7149 22.9444 38.5002 22.9444H34.8516L34.2224 21.6859V20.2221C34.2224 20.0074 34.0483 19.8333 33.8335 19.8333H31.5002C31.2854 19.8333 31.1113 20.0074 31.1113 20.2221V21.7777C31.1113 21.9925 31.2854 22.1666 31.5002 22.1666H33.5932L34.2224 23.425V25.6666C34.2224 25.0223 33.7001 24.4999 33.0557 24.4999C32.4114 24.4999 31.8891 25.0223 31.8891 25.6666V24.8888C31.8891 24.674 31.7149 24.4999 31.5002 24.4999H28.4369L27.2224 24.1962V17.8888C27.2224 17.0297 26.5259 16.3333 25.6668 16.3333H24.1113C23.2522 16.3333 22.5557 17.0297 22.5557 17.8888V22.1666H20.6113C19.9669 22.1666 19.4446 22.6889 19.4446 23.3333V24.4999H16.7224C16.5651 24.5 16.4234 24.5947 16.3632 24.74C16.303 24.8853 16.3363 25.0525 16.4474 25.1638L17.3392 26.0555L16.4474 26.9472C16.3363 27.0584 16.303 27.2257 16.3632 27.371C16.4234 27.5162 16.5651 27.611 16.7224 27.611H20.6113C21.2556 27.611 21.7779 27.0887 21.7779 26.4444V25.2777H22.5557V29.1666H21.3891C20.037 29.1682 18.8911 30.1618 18.6979 31.4999H17.5002C17.2854 31.4999 17.1113 31.674 17.1113 31.8888V33.4444C17.1113 33.6591 17.2854 33.8333 17.5002 33.8333H18.6668V34.611H16.7224C16.5076 34.611 16.3335 34.7851 16.3335 34.9999V36.5555C16.3335 36.7703 16.5076 36.9444 16.7224 36.9444H21.0002C21.0002 38.4478 22.2189 39.6666 23.7224 39.6666C25.2258 39.6666 26.4446 38.4478 26.4446 36.9444H33.4446C33.4446 38.4478 34.6634 39.6666 36.1668 39.6666C37.6703 39.6666 38.8891 38.4478 38.8891 36.9444H39.2779C39.3965 36.9444 39.5086 36.8904 39.5825 36.7977C39.6563 36.7049 39.6838 36.5835 39.6571 36.468L37.4334 26.8333ZM31.8891 25.6666C31.8891 26.3109 32.4114 26.8333 33.0557 26.8333C33.7001 26.8333 34.2224 26.3109 34.2224 25.6666V33.8333H33.0557V33.4444C33.0557 32.8 32.5334 32.2777 31.8891 32.2777V27.9999C31.8891 27.7851 31.7149 27.611 31.5002 27.611H27.2224V26.5536L28.2946 26.8216C28.3255 26.8293 28.3572 26.8332 28.3891 26.8333H31.5002C31.7149 26.8333 31.8891 26.6591 31.8891 26.4444V25.6666ZM33.4446 21.3888H31.8891V20.611H33.4446V21.3888ZM18.6668 36.1666V35.3888H17.1113V36.1666H18.6668ZM18.6668 33.0555H17.8891V32.2777H18.6668V33.0555ZM38.1113 23.7221H37.3335V26.0555H38.1113V23.7221ZM35.0002 23.7221H36.5557V26.0555H35.0002V23.7221ZM32.2779 33.4444C32.2779 33.2296 32.1038 33.0555 31.8891 33.0555H30.3335V33.8333H32.2779V33.4444ZM28.2946 25.266C28.3255 25.2738 28.3572 25.2777 28.3891 25.2777H31.1113V26.0555H28.4369L25.6668 25.3629V24.6092L28.2946 25.266ZM24.1113 17.111C23.6817 17.111 23.3335 17.4593 23.3335 17.8888V19.4444H24.5002V18.6666C24.5002 18.4518 24.6743 18.2777 24.8891 18.2777H26.4446V17.8888C26.4446 17.4593 26.0964 17.111 25.6668 17.111H24.1113ZM24.8891 20.2221C25.1038 20.2221 25.2779 20.048 25.2779 19.8333V19.0555H26.4446V19.9328L23.3335 20.8661V20.2221H24.8891ZM26.4446 22.5555V20.7448L23.3335 21.6781V22.5555H26.4446ZM26.4446 23.3333V24.0018L25.3724 23.7338C25.2562 23.7047 25.1331 23.7308 25.0387 23.8045C24.9443 23.8781 24.8891 23.9912 24.8891 24.111V25.6666C24.8891 25.845 25.0104 26.0005 25.1834 26.0438L26.4446 26.3592V27.611H23.3335V23.3333H26.4446ZM31.1113 32.2777V28.3888H23.3335V29.1666H29.9446C30.1594 29.1666 30.3335 29.3407 30.3335 29.5555V32.2777H31.1113ZM21.0002 26.4444C21.0002 26.6591 20.8261 26.8333 20.6113 26.8333H17.6612L18.164 26.3304C18.3158 26.1786 18.3158 25.9324 18.164 25.7805L17.6612 25.2777H21.0002V26.4444ZM20.2224 23.3333V24.4999H22.5557V22.9444H20.6113C20.3965 22.9444 20.2224 23.1185 20.2224 23.3333ZM23.7224 38.8888C22.649 38.8875 21.7792 38.0177 21.7779 36.9444H22.5557C22.5557 37.5887 23.0781 38.111 23.7224 38.111C24.3667 38.111 24.8891 37.5887 24.8891 36.9444H25.6668C25.6655 38.0177 24.7957 38.8875 23.7224 38.8888ZM23.7224 37.3333C23.9372 37.3333 24.1113 37.1591 24.1113 36.9444H23.3335C23.3335 37.1591 23.5076 37.3333 23.7224 37.3333ZM26.4446 36.1666H21.0002V32.2777C21.0002 32.0629 21.1743 31.8888 21.3891 31.8888H26.0557C26.2705 31.8888 26.4446 32.0629 26.4446 32.2777V36.1666ZM27.2224 36.1666H28.0002V31.8888C27.9989 30.8155 27.1291 29.9456 26.0557 29.9444H21.3891C20.3157 29.9456 19.4459 30.8155 19.4446 31.8888V36.1666H20.2224V32.2777C20.2224 31.6334 20.7447 31.111 21.3891 31.111H26.0557C26.7001 31.111 27.2224 31.6334 27.2224 32.2777V36.1666ZM27.9574 29.9444H29.5557V33.8333H28.7779V31.8888C28.778 31.1565 28.4821 30.4552 27.9574 29.9444ZM28.7779 34.611V36.1666H34.2224V34.611H28.7779ZM36.1668 38.8888C35.0935 38.8875 34.2237 38.0177 34.2224 36.9444H35.0002C35.0002 37.5887 35.5225 38.111 36.1668 38.111C36.8112 38.111 37.3335 37.5887 37.3335 36.9444H38.1113C38.11 38.0177 37.2402 38.8875 36.1668 38.8888ZM36.1668 37.3333C36.3816 37.3333 36.5557 37.1591 36.5557 36.9444H35.7779C35.7779 37.1591 35.9521 37.3333 36.1668 37.3333ZM35.0002 36.1666V33.4444H35.7779V32.6666H35.0002V26.8333H36.6335L38.7872 36.1666H35.0002ZM37.3335 32.6666H36.5557V33.4444H37.3335V32.6666ZM21.7779 32.6666H22.5557V33.4444H21.7779V32.6666ZM24.1113 32.6666H23.3335V33.4444H24.1113V32.6666ZM24.8891 32.6666H25.6668V33.4444H24.8891V32.6666ZM33.0557 25.2777C33.2705 25.2777 33.4446 25.4518 33.4446 25.6666C33.4446 25.8814 33.2705 26.0555 33.0557 26.0555C32.8409 26.0555 32.6668 25.8814 32.6668 25.6666C32.6668 25.4518 32.8409 25.2777 33.0557 25.2777ZM16.3335 19.0555H21.3891V19.8333H16.3335V19.0555ZM21.7779 20.611H17.1113V21.3888H21.7779V20.611Z" fill="#495567"/>
</svg>

<svg width="56" height="56" fill="none" xmlns="http://www.w3.org/2000/svg"><circle cx="28" cy="28" r="28" fill="#FCB72B"/><path fill-rule="evenodd" clip-rule="evenodd" d="M37.433 26.833H38.5a.389.389 0 0 0 .39-.389v-3.11a.389.389 0 0 0-.39-.39h-3.648l-.63-1.258v-1.464a.389.389 0 0 0-.389-.389H31.5a.389.389 0 0 0-.389.39v1.555c0 .215.174.389.39.389h2.092l.63 1.258v2.242a1.167 1.167 0 0 0-2.334 0v-.778a.389.389 0 0 0-.389-.39h-3.063l-1.215-.303V17.89c0-.86-.696-1.556-1.555-1.556H24.11c-.859 0-1.555.697-1.555 1.556v4.278H20.61c-.644 0-1.166.522-1.166 1.166V24.5h-2.723a.389.389 0 0 0-.275.664l.892.891-.892.892a.39.39 0 0 0 .275.664h3.89c.644 0 1.166-.522 1.166-1.167v-1.166h.778v3.889h-1.167a2.722 2.722 0 0 0-2.691 2.333H17.5a.389.389 0 0 0-.389.389v1.555c0 .215.174.39.39.39h1.166v.777h-1.945a.389.389 0 0 0-.389.389v1.556c0 .214.175.388.39.388H21a2.722 2.722 0 1 0 5.445 0h7a2.722 2.722 0 0 0 5.444 0h.389a.39.39 0 0 0 .38-.476l-2.225-9.635Zm-5.544-1.166a1.167 1.167 0 1 0 2.333 0v8.166h-1.166v-.389c0-.644-.523-1.166-1.167-1.166V28a.389.389 0 0 0-.389-.389h-4.278v-1.057l1.073.268c.03.007.062.011.094.011H31.5a.389.389 0 0 0 .39-.389v-.777Zm1.556-4.278h-1.556v-.778h1.556v.778ZM18.667 36.167v-.778H17.11v.778h1.556Zm0-3.111h-.778v-.778h.778v.778Zm19.444-9.334h-.777v2.333h.777v-2.333Zm-3.11 0h1.555v2.333H35v-2.333Zm-2.723 9.722a.389.389 0 0 0-.389-.389h-1.555v.778h1.944v-.389Zm-3.983-8.178c.03.008.062.012.094.012h2.722v.777h-2.674l-2.77-.692v-.754l2.628.657Zm-4.184-8.155a.778.778 0 0 0-.777.778v1.555H24.5v-.777c0-.215.174-.39.39-.39h1.555v-.388a.778.778 0 0 0-.778-.778H24.11Zm.778 3.111a.389.389 0 0 0 .389-.389v-.777h1.167v.877l-3.111.933v-.644h1.555Zm1.556 2.333v-1.81l-3.111.933v.877h3.11Zm0 .778v.669l-1.073-.268a.389.389 0 0 0-.483.377v1.556c0 .178.121.333.294.377l1.262.315v1.252h-3.111v-4.278h3.11Zm4.666 8.945v-3.89h-7.777v.779h6.61c.215 0 .39.174.39.388v2.723h.777Zm-10.11-5.834a.389.389 0 0 1-.39.39h-2.95l.503-.504a.389.389 0 0 0 0-.55l-.503-.502h3.34v1.166Zm-.779-3.11V24.5h2.334v-1.556H20.61a.389.389 0 0 0-.389.39Zm3.5 15.555a1.947 1.947 0 0 1-1.944-1.945h.778a1.167 1.167 0 0 0 2.333 0h.778a1.947 1.947 0 0 1-1.945 1.945Zm0-1.556a.389.389 0 0 0 .39-.389h-.778c0 .215.174.39.388.39Zm2.723-1.166H21v-3.89c0-.214.174-.388.39-.388h4.666c.214 0 .389.174.389.389v3.889Zm.777 0H28v-4.278a1.947 1.947 0 0 0-1.944-1.945h-4.667a1.947 1.947 0 0 0-1.944 1.945v4.278h.777v-3.89c0-.644.523-1.166 1.167-1.166h4.667c.644 0 1.166.522 1.166 1.167v3.889Zm.735-6.223h1.599v3.89h-.778v-1.945c0-.732-.296-1.434-.82-1.945Zm.82 4.667v1.556h5.445V34.61h-5.444Zm7.39 4.278a1.947 1.947 0 0 1-1.945-1.945H35a1.167 1.167 0 1 0 2.334 0h.777a1.947 1.947 0 0 1-1.944 1.945Zm0-1.556a.389.389 0 0 0 .389-.389h-.778c0 .215.174.39.389.39ZM35 36.167v-2.723h.778v-.777H35v-5.834h1.633l2.154 9.334H35Zm2.334-3.5h-.778v.777h.778v-.777Zm-15.556 0h.778v.777h-.778v-.777Zm2.333 0h-.777v.777h.777v-.777Zm.778 0h.778v.777h-.778v-.777Zm8.167-7.39a.389.389 0 1 1 0 .778.389.389 0 0 1 0-.777Zm-16.722-6.222h5.055v.778h-5.055v-.777Zm5.444 1.556H17.11v.778h4.667v-.778Z" fill="#495567"/></svg>
